res/logo.svg

<?xml version="1.0" encoding="UTF-8" standalone="no"?>
<svg
   xmlns:serif="http://www.serif.com/"
   xmlns:dc="http://purl.org/dc/elements/1.1/"
   xmlns:cc="http://creativecommons.org/ns#"
   xmlns:rdf="http://www.w3.org/1999/02/22-rdf-syntax-ns#"
   xmlns:svg="http://www.w3.org/2000/svg"
   xmlns="http://www.w3.org/2000/svg"
   xmlns:sodipodi="http://sodipodi.sourceforge.net/DTD/sodipodi-0.dtd"
   xmlns:inkscape="http://www.inkscape.org/namespaces/inkscape"
   width="100%"
   height="100%"
   viewBox="0 0 400 400"
   version="1.1"
   xml:space="preserve"
   style="clip-rule:evenodd;fill-rule:evenodd;stroke-linecap:round;stroke-linejoin:round;stroke-miterlimit:1.5"
   id="svg86"
   sodipodi:docname="logo.svg"
   inkscape:version="0.92.4 (f8dce91, 2019-08-02)"><metadata
   id="metadata92"><rdf:RDF><cc:Work
       rdf:about=""><dc:format>image/svg+xml</dc:format><dc:type
         rdf:resource="http://purl.org/dc/dcmitype/StillImage" /><dc:title></dc:title></cc:Work></rdf:RDF></metadata><defs
   id="defs90" /><sodipodi:namedview
   pagecolor="#ffffff"
   bordercolor="#666666"
   borderopacity="1"
   objecttolerance="10"
   gridtolerance="10"
   guidetolerance="10"
   inkscape:pageopacity="0"
   inkscape:pageshadow="2"
   inkscape:window-width="1039"
   inkscape:window-height="818"
   id="namedview88"
   showgrid="false"
   inkscape:zoom="0.84892086"
   inkscape:cx="200"
   inkscape:cy="139"
   inkscape:window-x="1308"
   inkscape:window-y="306"
   inkscape:window-maximized="0"
   inkscape:current-layer="svg86" />
    <g
   id="Layer1"
   transform="matrix(0.222222,0,0,0.222222,186.95597,178.85344)">
        <g
   transform="matrix(20.4384,-1.67174,1.47184,20.411,-1352.57,-1317.23)"
   id="g4">
            <path
   d="m 101.667,55.665 c 0,-4.644 -3.763,-8.415 -8.397,-8.415 H 34.897 c -4.634,0 -8.397,3.771 -8.397,8.415 v 32.67 c 0,4.644 3.763,8.415 8.397,8.415 H 93.27 c 4.634,0 8.397,-3.771 8.397,-8.415 z"
   style="fill:#1c7296;stroke:#002c78;stroke-width:1.89999998px"
   id="path2"
   inkscape:connector-curvature="0" />
        </g>
        <g
   transform="matrix(9.79537,-0.762793,0.740346,10.7839,-837.866,-519.817)"
   id="g8">
            <rect
   x="30.333"
   y="15.958"
   width="123.333"
   height="10.333"
   style="fill:#9d701f"
   id="rect6" />
        </g>
        <g
   transform="matrix(9.80494,-0.607527,0.554526,10.1515,-787.692,-497.419)"
   id="g12">
            <rect
   x="30.333"
   y="15.958"
   width="123.333"
   height="10.333"
   style="fill:#c3a72e"
   id="rect10" />
        </g>
        <g
   transform="matrix(21.2067,0,0,20.3805,-1290.27,-1333.51)"
   id="g16">
            <path
   d="m 101.667,55.665 c 0,-4.644 -3.624,-8.415 -8.087,-8.415 H 34.587 c -4.463,0 -8.087,3.771 -8.087,8.415 v 32.67 c 0,4.644 3.624,8.415 8.087,8.415 H 93.58 c 4.463,0 8.087,-3.771 8.087,-8.415 z"
   style="fill:#90d2ed;stroke:#002c78;stroke-width:1.92999995px"
   id="path14"
   inkscape:connector-curvature="0" />
        </g>
        <g
   transform="matrix(5.15544,0,0,4.82134,-13.0463,-414.519)"
   id="g20">
            <path
   d="m 174.197,108.212 c 0,-3.207 -2.434,-5.81 -5.433,-5.81 h -30.55 c -2.998,0 -5.433,2.603 -5.433,5.81 v 13.64 c 0,3.206 2.435,5.809 5.433,5.809 h 30.55 c 2.999,0 5.433,-2.603 5.433,-5.809 z"
   style="fill:#90d2ed;stroke:#002c78;stroke-width:5.86000013px"
   id="path18"
   inkscape:connector-curvature="0" />
        </g>
        <g
   transform="matrix(6.13739,0,0,6.58363,-136.931,-610.115)"
   id="g24">
            <circle
   cx="140.291"
   cy="113.78"
   r="5.006"
   style="fill:#9d701f"
   id="circle22" />
        </g>
        <g
   transform="matrix(14.5784,0,0,14.5784,-735.662,-613.526)"
   id="g28">
            <path
   d="M 96.6,42.8 C 96.4,42.3 95.9,42 95.3,42 H 70.9 c -0.4,0 -0.7,0.2 -1,0.4 -0.3,0.3 -0.4,0.7 -0.4,1 v 0.7 c 0,1.1 0,2.2 -0.1,3.3 0,0.4 0.1,0.8 0.4,1.1 0.3,0.3 0.6,0.5 1,0.5 H 92 c 0.4,0 0.8,-0.2 1.1,-0.5 l 3.3,-4.2 c 0.3,-0.4 0.4,-1 0.2,-1.5 z M 91.7,47 H 71.5 c 0.1,-1 0.1,-1.9 0.1,-2.8 V 44 h 22.5 z"
   style="fill:#002c78;fill-rule:nonzero;stroke:#002c78;stroke-width:0.31px;stroke-linecap:butt;stroke-miterlimit:2"
   id="path26"
   inkscape:connector-curvature="0" />
        </g>
        <g
   transform="matrix(14.5784,0,0,14.5784,-735.662,-613.526)"
   id="g32">
            <path
   d="M 88.6,50 H 70.5 c -0.7,0 -1.4,0.6 -1.5,1.3 -0.2,1.3 -0.5,2.6 -0.8,3.9 -0.1,0.5 0,0.9 0.3,1.3 0.3,0.4 0.7,0.5 1.2,0.5 h 15.8 c 0.5,0 0.9,-0.1 1.2,-0.5 l 3.2,-3.9 c 0.4,-0.5 0.4,-1.1 0.2,-1.7 -0.4,-0.5 -1,-0.9 -1.5,-0.9 z m -3.5,5 H 70.3 c 0.2,-1 0.5,-2 0.6,-3 h 16.6 z"
   style="fill:#002c78;fill-rule:nonzero;stroke:#002c78;stroke-width:0.31px;stroke-linecap:butt;stroke-miterlimit:2"
   id="path30"
   inkscape:connector-curvature="0" />
        </g>
        <g
   transform="matrix(14.5784,0,0,14.5784,-735.662,-613.526)"
   id="g36">
            <path
   d="M 82.5,58 H 68.3 c -0.6,0 -1.1,0.4 -1.3,0.9 -0.5,1.4 -1.2,2.8 -1.8,4 -0.2,0.4 -0.2,1 0,1.4 0.3,0.4 0.7,0.7 1.2,0.7 h 12.8 c 0.4,0 0.8,-0.2 1.1,-0.5 l 3.4,-4.2 c 0.3,-0.4 0.4,-1 0.2,-1.5 C 83.7,58.3 83,58 82.5,58 Z m -3.7,5 H 67.4 c 0.5,-1 0.9,-2 1.3,-3 h 12.5 z"
   style="fill:#002c78;fill-rule:nonzero;stroke:#002c78;stroke-width:0.31px;stroke-linecap:butt;stroke-miterlimit:2"
   id="path34"
   inkscape:connector-curvature="0" />
        </g>
        <g
   transform="matrix(14.5784,0,0,14.5784,-735.662,-613.526)"
   id="g40">
            <path
   d="m 30.9,48.5 c 0.3,-0.3 0.4,-0.7 0.4,-1.1 -0.1,-1.1 -0.1,-2.2 -0.1,-3.3 v -0.7 c 0,-0.4 -0.1,-0.8 -0.4,-1 C 30.5,42.1 30.2,42 29.8,42 H 5.4 c -0.5,0 -1,0.3 -1.3,0.8 -0.2,0.5 -0.2,1.1 0.2,1.5 l 3.3,4.2 C 7.9,48.8 8.3,49 8.7,49 h 21.1 c 0.5,0 0.8,-0.2 1.1,-0.5 z M 9,47 6.6,44 h 22.5 v 0.2 c 0,0.9 0,1.8 0.1,2.8 z"
   style="fill:#002c78;fill-rule:nonzero;stroke:#002c78;stroke-width:0.31px;stroke-linecap:butt;stroke-miterlimit:2"
   id="path38"
   inkscape:connector-curvature="0" />
        </g>
        <g
   transform="matrix(14.5784,0,0,14.5784,-735.662,-613.526)"
   id="g44">
            <path
   d="m 32.3,56.5 c 0.3,-0.4 0.4,-0.8 0.3,-1.3 C 32.3,54 32,52.6 31.8,51.3 31.6,50.6 31,50 30.2,50 h -18 c -0.6,0 -1.1,0.4 -1.4,0.9 -0.3,0.5 -0.2,1.2 0.2,1.6 l 3.2,3.9 c 0.3,0.4 0.7,0.5 1.2,0.5 H 31.2 C 31.6,57 32,56.8 32.3,56.5 Z M 15.6,55 13.2,52 h 16.6 c 0.2,1 0.4,2 0.6,3 z"
   style="fill:#002c78;fill-rule:nonzero;stroke:#002c78;stroke-width:0.31px;stroke-linecap:butt;stroke-miterlimit:2"
   id="path42"
   inkscape:connector-curvature="0" />
        </g>
        <g
   transform="matrix(14.5784,0,0,14.5784,-735.662,-613.526)"
   id="g48">
            <path
   d="M 33.7,58.9 C 33.5,58.4 33,58 32.4,58 H 18.2 c -0.5,0 -1,0.3 -1.3,0.8 -0.3,0.5 -0.2,1.1 0.2,1.5 l 3.4,4.2 c 0.3,0.3 0.7,0.5 1.1,0.5 h 12.8 c 0.5,0 0.9,-0.3 1.2,-0.7 0.3,-0.4 0.3,-1 0,-1.4 -0.7,-1.2 -1.3,-2.6 -1.9,-4 z M 21.9,63 19.5,60 H 32 c 0.4,1 0.9,2 1.3,3 z"
   style="fill:#002c78;fill-rule:nonzero;stroke:#002c78;stroke-width:0.31px;stroke-linecap:butt;stroke-miterlimit:2"
   id="path46"
   inkscape:connector-curvature="0" />
        </g>
        <g
   transform="matrix(11.9639,0,0,11.9639,-627.459,-466.507)"
   id="g52">
            <path
   d="m 52.374,31.594 c 10.639,0 19.277,8.638 19.277,19.278 0,10.639 -8.638,19.277 -19.277,19.277 -10.64,0 -19.278,-8.638 -19.278,-19.277 0,-10.64 8.638,-19.278 19.278,-19.278 z m 0,0 c 10.639,0 19.277,8.638 19.277,19.278 0,10.639 -8.638,19.277 -19.277,19.277 -10.64,0 -19.278,-8.638 -19.278,-19.277 0,-10.64 8.638,-19.278 19.278,-19.278 z"
   style="fill:#ffffff;stroke:#002c78;stroke-width:3.20000005px"
   id="path50"
   inkscape:connector-curvature="0" />
        </g>
        <g
   id="noun_Sign-Language-Y_253038--2-"
   serif:id="noun_Sign Language Y_253038 (2)"
   transform="matrix(5.47083,0,0,5.46064,-264.141,-121.197)">
            <path
   d="m 36.627,35.697 c -2.261,0.051 -4.071,1.826 -4.071,4.071 v 1.725 l -4.14,-10.695 c -0.69,-2.553 -3.381,-4.14 -6.003,-3.381 -1.242,0.345 -2.346,1.173 -2.967,2.277 -0.621,1.104 -0.828,2.484 -0.483,3.726 l 4.83,17.457 C 24,52.809 26.691,77.994 42.63,77.925 h 0.069 c 17.043,0 20.355,-9.177 20.976,-11.592 l 15.801,-5.175 c 0.897,-0.207 1.656,-0.828 2.07,-1.794 0.69,-1.587 0.621,-3.933 -0.207,-5.313 -1.173,-2.139 -3.519,-4.554 -8.142,-4.002 L 62.571,51.36 V 39.63 c 0,-2.109 -1.677,-3.815 -3.864,-3.864 h -3.381 c -1.084,0.018 -2.019,0.361 -2.691,0.966 -0.542,-1.557 -2.014,-2.716 -3.864,-2.76 h -2.76 c -1.849,0.042 -3.255,1.134 -3.864,2.691 -0.667,-0.533 -1.528,-0.938 -2.553,-0.966 z"
   style="fill:#ebebeb"
   id="path54"
   inkscape:connector-curvature="0" />
            <path
   d="M 42.768,76.269 H 42.699 C 28.071,76.269 25.587,50.946 25.587,50.67 L 20.688,33.006 c -0.207,-0.828 -0.138,-1.656 0.345,-2.415 0.414,-0.759 1.104,-1.242 1.932,-1.449 1.725,-0.483 3.45,0.552 3.864,2.208 l 5.382,13.869 c 0.069,0.207 0.207,0.345 0.414,0.414 v 6.9 c 0,2.07 1.656,3.795 3.795,3.795 h 3.933 c 0.69,0 1.38,-0.207 1.863,-0.621 0.621,1.38 1.932,2.346 3.519,2.346 h 3.519 c 1.242,0 2.277,-0.621 2.898,-1.518 0.828,0.897 2.001,1.518 3.312,1.518 h 2.76 c 2.415,0 4.347,-1.932 4.347,-4.347 v -0.69 l 10.833,-1.311 c 2.967,-0.345 5.106,0.759 6.486,3.174 0.483,0.966 0.552,2.691 0.069,3.795 -0.207,0.483 -0.552,0.759 -0.897,0.828 l -16.905,5.52 -0.069,0.552 c 0,0.138 -1.445,10.597 -19.32,10.695 z"
   style="fill:#ebebeb"
   id="path56"
   inkscape:connector-curvature="0" />
            <path
   d="m 58.224,56.328 h -2.76 c -1.449,0 -2.622,-1.173 -2.622,-2.622 v -13.8 c 0,-1.38 1.104,-2.484 2.484,-2.484 h 3.381 c 1.173,0 2.139,0.966 2.139,2.139 v 14.145 c 0,1.422 -1.13,2.578 -2.622,2.622 z"
   style="fill:#ebebeb"
   id="path58"
   inkscape:connector-curvature="0" />
            <path
   d="m 43.665,38.112 h -0.069 c 0,-1.311 1.104,-2.415 2.415,-2.415 h 2.76 c 1.311,0 2.415,1.104 2.415,2.415 v 16.353 c 0,1.009 -0.788,1.822 -1.863,1.863 h -3.519 c -1.173,0 -2.139,-0.966 -2.139,-2.139 z"
   style="fill:#ebebeb"
   id="path60"
   inkscape:connector-curvature="0" />
            <path
   d="m 40.284,54.603 h -3.933 c -1.104,0 -2.07,-0.897 -2.07,-2.07 V 39.768 c 0,-1.242 1.035,-2.346 2.346,-2.346 h 2.898 c 1.242,0 2.346,1.035 2.346,2.346 v 13.248 c 0,0.867 -0.645,1.541 -1.587,1.587 z"
   style="fill:#ebebeb"
   id="path62"
   inkscape:connector-curvature="0" />
            <g
   transform="matrix(0.69,0,0,0.69,13.8565,10.4431)"
   id="g66">
                <path
   d="M 70.6,59.3 86,57.4 c 6.7,-0.8 10.1,2.7 11.8,5.8 1.2,2 1.3,5.4 0.3,7.7 -0.6,1.4 -1.7,2.3 -3,2.6 L 72.2,81 C 71.3,84.5 66.5,97.8 41.8,97.8 H 41.7 C 18.6,97.9 14.7,61.4 14.4,58.6 l -7,-25.3 c -0.5,-1.8 -0.2,-3.8 0.7,-5.4 0.9,-1.6 2.5,-2.8 4.3,-3.3 3.8,-1.1 7.7,1.2 8.7,4.9 l 6,15.5 v -2.5 c 0,-3.254 2.625,-5.827 5.9,-5.9 h 4.3 c 1.486,0.04 2.733,0.627 3.7,1.4 0.883,-2.257 2.922,-3.84 5.6,-3.9 h 4 c 2.682,0.064 4.815,1.743 5.6,4 0.975,-0.877 2.33,-1.375 3.9,-1.4 H 65 c 3.17,0.071 5.6,2.544 5.6,5.6 z"
   id="path64"
   inkscape:connector-curvature="0" />
            </g>
            <g
   transform="matrix(0.69,0,0,0.69,13.8565,10.4431)"
   id="g70">
                <path
   d="m 41.9,95.4 c 25.906,-0.143 28,-15.3 28,-15.5 l 0.1,-0.8 24.5,-8 c 0.5,-0.1 1,-0.5 1.3,-1.2 0.7,-1.6 0.6,-4.1 -0.1,-5.5 -2,-3.5 -5.1,-5.1 -9.4,-4.6 l -15.7,1.9 v 1 c 0,3.5 -2.8,6.3 -6.3,6.3 h -4 c -1.9,0 -3.6,-0.9 -4.8,-2.2 -0.9,1.3 -2.4,2.2 -4.2,2.2 h -5.1 c -2.3,0 -4.2,-1.4 -5.1,-3.4 -0.7,0.6 -1.7,0.9 -2.7,0.9 H 32.7 C 29.6,66.5 27.2,64 27.2,61 V 51 C 26.9,50.9 26.7,50.7 26.6,50.4 L 18.8,30.3 c -0.6,-2.4 -3.1,-3.9 -5.6,-3.2 -1.2,0.3 -2.2,1 -2.8,2.1 -0.7,1.1 -0.8,2.3 -0.5,3.5 L 17,58.3 c 0,0.4 3.6,37.1 24.8,37.1 z"
   style="fill:#ffffff"
   id="path68"
   inkscape:connector-curvature="0" />
            </g>
            <g
   transform="matrix(0.69,0,0,0.69,13.8565,10.4431)"
   id="g74">
                <path
   d="m 64.3,66.5 c 2.163,-0.064 3.8,-1.739 3.8,-3.8 V 42.2 c 0,-1.7 -1.4,-3.1 -3.1,-3.1 h -4.9 c -2,0 -3.6,1.6 -3.6,3.6 v 20 c 0,2.1 1.7,3.8 3.8,3.8 z"
   style="fill:#ffffff"
   id="path72"
   inkscape:connector-curvature="0" />
            </g>
            <g
   transform="matrix(0.69,0,0,0.69,13.8565,10.4431)"
   id="g78">
                <path
   d="m 51.4,66.5 c 1.559,-0.06 2.7,-1.238 2.7,-2.7 V 40.1 c 0,-1.9 -1.6,-3.5 -3.5,-3.5 h -4 c -1.9,0 -3.5,1.6 -3.5,3.5 h 0.1 v 23.3 c 0,1.7 1.4,3.1 3.1,3.1 z"
   style="fill:#ffffff"
   id="path76"
   inkscape:connector-curvature="0" />
            </g>
            <g
   transform="matrix(0.69,0,0,0.69,13.8565,10.4431)"
   id="g82">
                <path
   d="m 38.3,64 c 1.366,-0.067 2.3,-1.043 2.3,-2.3 V 42.5 c 0,-1.9 -1.6,-3.4 -3.4,-3.4 H 33 c -1.9,0 -3.4,1.6 -3.4,3.4 V 61 c 0,1.7 1.4,3 3,3 z"
   style="fill:#ffffff"
   id="path80"
   inkscape:connector-curvature="0" />
            </g>
        </g>
    </g>
</svg>

<?xml version="1.0" encoding="UTF-8" standalone="no"?>
<svg
   xmlns:serif="http://www.serif.com/"
   xmlns:dc="http://purl.org/dc/elements/1.1/"
   xmlns:cc="http://creativecommons.org/ns#"
   xmlns:rdf="http://www.w3.org/1999/02/22-rdf-syntax-ns#"
   xmlns:svg="http://www.w3.org/2000/svg"
   xmlns="http://www.w3.org/2000/svg"
   xmlns:sodipodi="http://sodipodi.sourceforge.net/DTD/sodipodi-0.dtd"
   xmlns:inkscape="http://www.inkscape.org/namespaces/inkscape"
   width="100%"
   height="100%"
   viewBox="0 0 100 100"
   version="1.1"
   xml:space="preserve"
   style="fill-rule:evenodd;clip-rule:evenodd;stroke-linejoin:round;stroke-miterlimit:2;"
   id="svg107"
   sodipodi:docname="logo.svg"
   inkscape:version="0.92.4 (f8dce91, 2019-08-02)"><metadata
   id="metadata113"><rdf:RDF><cc:Work
       rdf:about=""><dc:format>image/svg+xml</dc:format><dc:type
         rdf:resource="http://purl.org/dc/dcmitype/StillImage" /><dc:title></dc:title></cc:Work></rdf:RDF></metadata><defs
   id="defs111" /><sodipodi:namedview
   pagecolor="#ffffff"
   bordercolor="#666666"
   borderopacity="1"
   objecttolerance="10"
   gridtolerance="10"
   guidetolerance="10"
   inkscape:pageopacity="0"
   inkscape:pageshadow="2"
   inkscape:window-width="3440"
   inkscape:window-height="1385"
   id="namedview109"
   showgrid="false"
   inkscape:zoom="12.04"
   inkscape:cx="50"
   inkscape:cy="50"
   inkscape:window-x="0"
   inkscape:window-y="27"
   inkscape:window-maximized="1"
   inkscape:current-layer="svg107" />
    <g
   transform="matrix(1.14689,0,0,1.14689,-8.9443,-7.24895)"
   id="g74">
        <path
   d="M85.093,40.543C85.093,21.932 70.008,6.845 51.396,6.845C32.784,6.845 17.697,21.932 17.697,40.543C17.697,51.443 22.875,61.127 30.902,67.286L30.83,67.348L43.984,83.128C43.875,83.399 43.811,83.694 43.811,84.006L43.811,90.633C43.811,91.934 44.865,92.989 46.167,92.989L56.623,92.989C57.924,92.989 58.98,91.935 58.98,90.633L58.98,84.006C58.98,83.569 58.852,83.163 58.645,82.813L71.625,67.496C79.804,61.347 85.093,51.563 85.093,40.543ZM58.147,73.564L54.377,81.649L48.167,81.649L44.37,73.502C46.638,73.982 48.987,74.241 51.397,74.241C53.708,74.241 55.964,74.007 58.147,73.564ZM42.007,72.906L41.925,72.945L45.99,81.666C45.684,81.689 45.396,81.768 45.135,81.896L35.383,70.2C37.468,71.328 39.687,72.234 42.007,72.906ZM57.376,81.783C57.139,81.703 56.887,81.649 56.622,81.649L56.56,81.649L60.614,72.954C62.856,72.318 65.002,71.457 67.028,70.395L57.376,81.783Z"
   style="fill:rgb(144,210,237);fill-rule:nonzero;"
   id="path72" />
    </g>
    <g
   id="noun_Sign-Language-Y_253038--2-"
   serif:id="noun_Sign Language Y_253038 (2)"
   transform="matrix(1.01786,0,0,1.01597,1.63355,-11.6498)">
        <path
   d="M36.627,35.697C34.366,35.748 32.556,37.523 32.556,39.768L32.556,41.493L28.416,30.798C27.726,28.245 25.035,26.658 22.413,27.417C21.171,27.762 20.067,28.59 19.446,29.694C18.825,30.798 18.618,32.178 18.963,33.42L23.793,50.877C24,52.809 26.691,77.994 42.63,77.925L42.699,77.925C59.742,77.925 63.054,68.748 63.675,66.333L79.476,61.158C80.373,60.951 81.132,60.33 81.546,59.364C82.236,57.777 82.167,55.431 81.339,54.051C80.166,51.912 77.82,49.497 73.197,50.049L62.571,51.36L62.571,39.63C62.571,37.521 60.894,35.815 58.707,35.766L55.326,35.766C54.242,35.784 53.307,36.127 52.635,36.732C52.093,35.175 50.621,34.016 48.771,33.972L46.011,33.972C44.162,34.014 42.756,35.106 42.147,36.663C41.48,36.13 40.619,35.725 39.594,35.697L36.627,35.697Z"
   style="fill:rgb(235,235,235);"
   id="path76" />
        <path
   d="M42.768,76.269L42.699,76.269C28.071,76.269 25.587,50.946 25.587,50.67L20.688,33.006C20.481,32.178 20.55,31.35 21.033,30.591C21.447,29.832 22.137,29.349 22.965,29.142C24.69,28.659 26.415,29.694 26.829,31.35L32.211,45.219C32.28,45.426 32.418,45.564 32.625,45.633L32.625,52.533C32.625,54.603 34.281,56.328 36.42,56.328L40.353,56.328C41.043,56.328 41.733,56.121 42.216,55.707C42.837,57.087 44.148,58.053 45.735,58.053L49.254,58.053C50.496,58.053 51.531,57.432 52.152,56.535C52.98,57.432 54.153,58.053 55.464,58.053L58.224,58.053C60.639,58.053 62.571,56.121 62.571,53.706L62.571,53.016L73.404,51.705C76.371,51.36 78.51,52.464 79.89,54.879C80.373,55.845 80.442,57.57 79.959,58.674C79.752,59.157 79.407,59.433 79.062,59.502L62.157,65.022L62.088,65.574C62.088,65.712 60.643,76.171 42.768,76.269Z"
   style="fill:rgb(235,235,235);"
   id="path78" />
        <path
   d="M58.224,56.328L55.464,56.328C54.015,56.328 52.842,55.155 52.842,53.706L52.842,39.906C52.842,38.526 53.946,37.422 55.326,37.422L58.707,37.422C59.88,37.422 60.846,38.388 60.846,39.561L60.846,53.706C60.846,55.128 59.716,56.284 58.224,56.328Z"
   style="fill:rgb(235,235,235);"
   id="path80" />
        <path
   d="M43.665,38.112L43.596,38.112C43.596,36.801 44.7,35.697 46.011,35.697L48.771,35.697C50.082,35.697 51.186,36.801 51.186,38.112L51.186,54.465C51.186,55.474 50.398,56.287 49.323,56.328L45.804,56.328C44.631,56.328 43.665,55.362 43.665,54.189L43.665,38.112Z"
   style="fill:rgb(235,235,235);"
   id="path82" />
        <path
   d="M40.284,54.603L36.351,54.603C35.247,54.603 34.281,53.706 34.281,52.533L34.281,39.768C34.281,38.526 35.316,37.422 36.627,37.422L39.525,37.422C40.767,37.422 41.871,38.457 41.871,39.768L41.871,53.016C41.871,53.883 41.226,54.557 40.284,54.603Z"
   style="fill:rgb(235,235,235);"
   id="path84" />
        <g
   transform="matrix(0.69,0,0,0.69,13.8565,10.4431)"
   id="g88">
            <path
   d="M70.6,59.3L86,57.4C92.7,56.6 96.1,60.1 97.8,63.2C99,65.2 99.1,68.6 98.1,70.9C97.5,72.3 96.4,73.2 95.1,73.5L72.2,81C71.3,84.5 66.5,97.8 41.8,97.8L41.7,97.8C18.6,97.9 14.7,61.4 14.4,58.6L7.4,33.3C6.9,31.5 7.2,29.5 8.1,27.9C9,26.3 10.6,25.1 12.4,24.6C16.2,23.5 20.1,25.8 21.1,29.5L27.1,45L27.1,42.5C27.1,39.246 29.725,36.673 33,36.6L37.3,36.6C38.786,36.64 40.033,37.227 41,38C41.883,35.743 43.922,34.16 46.6,34.1L50.6,34.1C53.282,34.164 55.415,35.843 56.2,38.1C57.175,37.223 58.53,36.725 60.1,36.7L65,36.7C68.17,36.771 70.6,39.244 70.6,42.3L70.6,59.3Z"
   id="path86" />
        </g>
        <g
   transform="matrix(0.69,0,0,0.69,13.8565,10.4431)"
   id="g92">
            <path
   d="M41.9,95.4C67.806,95.257 69.9,80.1 69.9,79.9L70,79.1L94.5,71.1C95,71 95.5,70.6 95.8,69.9C96.5,68.3 96.4,65.8 95.7,64.4C93.7,60.9 90.6,59.3 86.3,59.8L70.6,61.7L70.6,62.7C70.6,66.2 67.8,69 64.3,69L60.3,69C58.4,69 56.7,68.1 55.5,66.8C54.6,68.1 53.1,69 51.3,69L46.2,69C43.9,69 42,67.6 41.1,65.6C40.4,66.2 39.4,66.5 38.4,66.5L32.7,66.5C29.6,66.5 27.2,64 27.2,61L27.2,51C26.9,50.9 26.7,50.7 26.6,50.4L18.8,30.3C18.2,27.9 15.7,26.4 13.2,27.1C12,27.4 11,28.1 10.4,29.2C9.7,30.3 9.6,31.5 9.9,32.7L17,58.3C17,58.7 20.6,95.4 41.8,95.4L41.9,95.4Z"
   style="fill:white;"
   id="path90" />
        </g>
        <g
   transform="matrix(0.69,0,0,0.69,13.8565,10.4431)"
   id="g96">
            <path
   d="M64.3,66.5C66.463,66.436 68.1,64.761 68.1,62.7L68.1,42.2C68.1,40.5 66.7,39.1 65,39.1L60.1,39.1C58.1,39.1 56.5,40.7 56.5,42.7L56.5,62.7C56.5,64.8 58.2,66.5 60.3,66.5L64.3,66.5Z"
   style="fill:white;"
   id="path94" />
        </g>
        <g
   transform="matrix(0.69,0,0,0.69,13.8565,10.4431)"
   id="g100">
            <path
   d="M51.4,66.5C52.959,66.44 54.1,65.262 54.1,63.8L54.1,40.1C54.1,38.2 52.5,36.6 50.6,36.6L46.6,36.6C44.7,36.6 43.1,38.2 43.1,40.1L43.2,40.1L43.2,63.4C43.2,65.1 44.6,66.5 46.3,66.5L51.4,66.5Z"
   style="fill:white;"
   id="path98" />
        </g>
        <g
   transform="matrix(0.69,0,0,0.69,13.8565,10.4431)"
   id="g104">
            <path
   d="M38.3,64C39.666,63.933 40.6,62.957 40.6,61.7L40.6,42.5C40.6,40.6 39,39.1 37.2,39.1L33,39.1C31.1,39.1 29.6,40.7 29.6,42.5L29.6,61C29.6,62.7 31,64 32.6,64L38.3,64Z"
   style="fill:white;"
   id="path102" />
        </g>
    </g>
</svg>
